X:1120
T:The White Heather Jig
C:Traditional Scottish
S:Colin Hume's website,  colinhume.com  - chords can also be printed below the stave.
Q:3/8=120
M:6/8
R:Jig
K:G
P:A
D | "G"G2G "D7"FGA | "G"G2G G3 | "G"B2B "D7"ABc | "G"B3 -B2B |\
"Am"c2c A2c | "G"B2B G2B | "A7"ABA GFE | "D"D3 -D2D |
"G"G2G "D7"FGA | "G"G2G G3 | "G"B2B "D7"ABc | "G"B3 -B2B |\
"Am"c2A F2e | "G"d2c B2d | "D7"ded cBA | "G"G3 -G2A |
K:D
P:B
"D"A2B B2A | Afd A2A | "D"A2f fef | "A7"g3 -g2A |\
"A7"A2e e2d | d2c c3 | ded c2B | B2_B A2A |
"D"A2B B2A | Afd A2A | "D"a2f d2c | "G"B3 -B2B |\
"Em"B2g g2B | "D"A2f f2d | "A7"c2A ABc | "D"d3 "D7"d2D |
K:G
P:C
"G"G2G "D7"FGA | "G"G2G G3 | "G"B2B "D7"ABc | "G"B3 -B2B |\
"Am"c2A F2e | "G"d2c B2d | "D7"ded cBA | "G"G3 -G2 |]

